build/img/basket.svg

<svg width="18" height="13" viewBox="0 0 18 13" fill="none" xmlns="http://www.w3.org/2000/svg">
<path d="M15.975 10.115L17.4312 3.6134C17.4693 3.44341 17.4686 3.26704 17.4293 3.09733C17.39 2.92763 17.3131 2.76891 17.2042 2.63292C17.0954 2.49693 16.9574 2.38714 16.8004 2.31165C16.6434 2.23617 16.4714 2.19692 16.2972 2.1968H4.94464L4.72144 1.1042C4.70461 1.02166 4.65937 0.947638 4.59359 0.895015C4.52781 0.842392 4.44566 0.814503 4.36144 0.816201H0.900039C0.804561 0.816201 0.712994 0.854129 0.645481 0.921642C0.577968 0.989156 0.540039 1.08072 0.540039 1.1762C0.540039 1.27168 0.577968 1.36325 0.645481 1.43076C0.712994 1.49827 0.804561 1.5362 0.900039 1.5362H4.07524L4.29844 2.6288L5.82844 10.1078L6.17224 11.78C6.18907 11.8625 6.23431 11.9366 6.30009 11.9892C6.36587 12.0418 6.44802 12.0697 6.53224 12.068H16.5816C16.6771 12.068 16.7687 12.0301 16.8362 11.9626C16.9037 11.895 16.9416 11.8035 16.9416 11.708C16.9416 11.6125 16.9037 11.521 16.8362 11.4534C16.7687 11.3859 16.6771 11.348 16.5816 11.348H6.81844L6.62224 10.3922H15.6222C15.7037 10.3928 15.783 10.3656 15.8471 10.3153C15.9112 10.2649 15.9563 10.1943 15.975 10.115V10.115ZM6.48004 9.6758L5.09224 2.9168H16.2972C16.3638 2.91646 16.4295 2.93117 16.4895 2.95983C16.5495 2.98849 16.6023 3.03036 16.6439 3.0823C16.6854 3.13425 16.7147 3.19492 16.7295 3.25977C16.7442 3.32462 16.7442 3.39198 16.7292 3.4568L15.3342 9.6758H6.48004Z" fill="black"/>
</svg>

<svg width="18" height="13" fill="none" xmlns="http://www.w3.org/2000/svg"><path d="M15.975 10.115l1.456-6.502a1.161 1.161 0 00-1.134-1.416H4.945L4.72 1.104a.36.36 0 00-.36-.288H.9a.36.36 0 100 .72h3.175l.223 1.093 1.53 7.479.344 1.672a.36.36 0 00.36.288h10.05a.36.36 0 100-.72H6.818l-.196-.956h9a.36.36 0 00.353-.277zm-9.495-.44L5.092 2.918h11.205a.44.44 0 01.432.54l-1.395 6.219H6.48z" fill="#000"/></svg>
